src/lib/packages/icons/src/assets/line/stop.svg

<svg xmlns="http://www.w3.org/2000/svg" width="24" height="24" fill="none"><path fill="currentColor" d="M17 20.75H7c-2.418 0-3.75-1.332-3.75-3.75V7c0-2.418 1.332-3.75 3.75-3.75h10c2.418 0 3.75 1.332 3.75 3.75v10c0 2.418-1.332 3.75-3.75 3.75Zm-10-16c-1.577 0-2.25.673-2.25 2.25v10c0 1.577.673 2.25 2.25 2.25h10c1.577 0 2.25-.673 2.25-2.25V7c0-1.577-.673-2.25-2.25-2.25H7Z"/></svg>

<svg width="24" height="24" viewBox="0 0 24 24" fill="none" xmlns="http://www.w3.org/2000/svg">
<path d="M17 20.75H7C4.582 20.75 3.25 19.418 3.25 17V7C3.25 4.582 4.582 3.25 7 3.25H17C19.418 3.25 20.75 4.582 20.75 7V17C20.75 19.418 19.418 20.75 17 20.75ZM7 4.75C5.423 4.75 4.75 5.423 4.75 7V17C4.75 18.577 5.423 19.25 7 19.25H17C18.577 19.25 19.25 18.577 19.25 17V7C19.25 5.423 18.577 4.75 17 4.75H7Z" fill="currentColor"/>
</svg>
